images/icons/shopping-cart.svg

<svg width="52" height="52" viewBox="0 0 52 52" fill="none" xmlns="http://www.w3.org/2000/svg">
<path d="M27.9225 0.0544414C13.7389 -0.860864 1.49715 9.87442 0.582006 24.0304C0.158729 30.5568 2.22221 36.6686 5.95527 41.4544L1.47614 49.3861C1.00348 50.223 1.86865 51.1798 2.74881 50.7935L11.7009 46.8641C15.3967 49.4008 19.8039 51.0104 24.6049 51.3194C38.7886 52.2347 51.0303 41.4994 51.9455 27.3435C52.8626 13.1875 42.1062 0.969746 27.9225 0.0563961V0.0544414Z" fill="#1A1A1A"/>
<path d="M31.25 31.25H20.5455L17.9302 16.8658C17.8987 16.693 17.8077 16.5367 17.6728 16.4242C17.538 16.3116 17.3679 16.25 17.1922 16.25H15.5" stroke="#91EE22" stroke-width="2" stroke-linecap="round" stroke-linejoin="round"/>
<path d="M21.5 35C22.5355 35 23.375 34.1605 23.375 33.125C23.375 32.0895 22.5355 31.25 21.5 31.25C20.4645 31.25 19.625 32.0895 19.625 33.125C19.625 34.1605 20.4645 35 21.5 35Z" stroke="#91EE22" stroke-width="2" stroke-linecap="round" stroke-linejoin="round"/>
<path d="M31.25 35C32.2855 35 33.125 34.1605 33.125 33.125C33.125 32.0895 32.2855 31.25 31.25 31.25C30.2145 31.25 29.375 32.0895 29.375 33.125C29.375 34.1605 30.2145 35 31.25 35Z" stroke="#91EE22" stroke-width="2" stroke-linecap="round" stroke-linejoin="round"/>
<path d="M19.8636 27.5H31.6345C31.9858 27.5 32.3259 27.3767 32.5956 27.1516C32.8653 26.9265 33.0475 26.6139 33.1103 26.2683L34.25 20H18.5" stroke="#91EE22" stroke-width="2" stroke-linecap="round" stroke-linejoin="round"/>
</svg>

<svg width="52" height="52" xmlns="http://www.w3.org/2000/svg" xmlns:svg="http://www.w3.org/2000/svg">
  <path d="m27.92,0.05c-14.18,-0.91 -26.42,9.82 -27.34,23.98c-0.42,6.53 1.64,12.64 5.38,17.42l-4.48,7.94c-0.48,0.83 0.39,1.79 1.27,1.4l8.95,-3.93c3.7,2.54 8.1,4.15 12.9,4.46c14.19,0.91 26.43,-9.82 27.35,-23.98c0.91,-14.15 -9.84,-26.37 -24.03,-27.28l0,-0.01z" fill="#1A1A1A" id="svg_1"/>
  <path d="m31.25,31.25l-10.7,0l-2.62,-14.38c-0.03,-0.18 -0.12,-0.33 -0.26,-0.45c-0.13,-0.11 -0.3,-0.17 -0.48,-0.17l-1.69,0" id="svg_2" stroke="#91EE22" stroke-linecap="round" stroke-linejoin="round" stroke-width="2"/>
  <path d="m21.5,35c1.04,0 1.88,-0.84 1.88,-1.87c0,-1.04 -0.84,-1.88 -1.88,-1.88c-1.04,0 -1.87,0.84 -1.87,1.88c0,1.03 0.83,1.87 1.87,1.87z" id="svg_3" stroke="#91EE22" stroke-linecap="round" stroke-linejoin="round" stroke-width="2"/>
  <path d="m31.25,35c1.04,0 1.88,-0.84 1.88,-1.87c0,-1.04 -0.84,-1.88 -1.88,-1.88c-1.04,0 -1.87,0.84 -1.87,1.88c0,1.03 0.83,1.87 1.87,1.87z" id="svg_4" stroke="#91EE22" stroke-linecap="round" stroke-linejoin="round" stroke-width="2"/>
  <path d="m21.86,27.5l9.77,0c0.36,0 0.7,-0.12 0.97,-0.35c0.27,-0.22 0.45,-0.54 0.51,-0.88l1.14,-6.27l-14.75,0" id="svg_5" stroke="#91EE22" stroke-linecap="round" stroke-linejoin="round" stroke-width="2"/>
</svg>
